X: 1
T: Gan Ainm
R: Reel
S: Francis Lynne
D: Milltown Session
Z: Adrian Scahill
S: Robert Eckert <Robert@WHISTLEPLAYERS.ZZN.COM> irtrad-l 2001-6-12
M: 4/4
L: 1/8
K: C
EAAG EAAG | EAAB cdec | ABAG EFGB |1 Addc A2GD :|2 Addc A2ef ||
edcd edd2 | edcd efgf | edcd edd2 | eaag e2ef |
edcd edd2 | edcd efgf | eaa2 egge | eaag e2DG |]
